X: 30
T: the Convenience Reel
T: Masterson's Convenience Reel
C: Olcan Masterson
R: reel
Z: 2012 John Chambers <jc@trillian.mit.edu>
D: (band) Sheguí "Around the World for Sport" 1980
B: "100 Essential Irish Session Tunes" 1995 Dave Mallinson, ed.
M: 4/4
L: 1/8
K: D
|: "D"dABA dABA | "A7"GAFA EADA | "D"dABA dABA |1,3 "A7"GAEA "D"DEFA :|2,4 "A7"FAEA "D"D4 :|
|: "D"df~f2 df~f2 | "A7"ecAe gfec | "D"df~f2 dffe |1,3 "A7"dABc "D"d3A :|2,4 "A7"dABc defg :|
|: "D"a2ag f2ed | "A7"Aeed efge | "D"~a2ag f2ed | "A7"Addc defg |
| "D"aA~A2 aAaA | "A7"gA~A2 gAgA | "D"fgaf "G"gbag |1"A7"fdec "D"defg :|2 "A7"fdec "D"d2 (3ABc |]
